server/public/images/avatar-small.svg

<svg xmlns="http://www.w3.org/2000/svg" xmlns:xlink="http://www.w3.org/1999/xlink" width="24" height="24" viewBox="0 0 24 24">
  <defs>
    <circle id="avatar-small-a" cx="12" cy="12" r="12"/>
  </defs>
  <g fill="none" fill-rule="evenodd">
    <circle cx="12" cy="12" r="12" fill="#FFF" fill-rule="nonzero"/>
    <mask id="avatar-small-b" fill="#fff">
      <use xlink:href="#avatar-small-a"/>
    </mask>
    <path fill="#CFD7DF" fill-rule="nonzero" d="M16.101,15.8409544 L17.8434,16.4708718 C19.2366541,16.9750851 20.1596513,18.2592477 20.16,19.6939492 L20.16,21.1255797 C20.16,21.6526915 19.7167619,26.88 19.17,26.88 L5.31,26.88 C4.7632381,26.88 4.32,21.6526915 4.32,21.1255797 L4.32,19.6939492 C4.32,18.2585011 5.24367,16.9738513 6.6366,16.4699174 L8.379,15.84 C9.42573902,16.7845455 10.8062692,17.3094038 12.24,17.3078984 C13.6735956,17.3096626 15.0541082,16.7851522 16.101,15.8409544 Z M12.049136,6.24 L12.4309452,6.24 C13.3841753,6.23999059 14.2938685,6.63325718 14.9393795,7.32441336 C15.5848905,8.01556949 15.9072489,8.94147485 15.828267,9.87755208 L15.6685305,11.7692711 C15.5210942,13.5272352 14.0301444,14.88 12.2400406,14.88 C10.4499368,14.88 8.95898693,13.5272352 8.8115507,11.7692711 L8.65181424,9.87851184 C8.57254464,8.94227611 8.89477363,8.0161116 9.54031709,7.32473827 C10.1858606,6.63336499 11.0957217,6.23996827 12.049136,6.24 Z" mask="url(#avatar-small-b)"/>
  </g>
</svg>

<svg xmlns="http://www.w3.org/2000/svg" xmlns:xlink="http://www.w3.org/1999/xlink" width="24" height="24"><defs><circle id="a" cx="12" cy="12" r="12"/></defs><g fill="none" fill-rule="evenodd"><circle cx="12" cy="12" r="12" fill="#FFF" fill-rule="nonzero"/><mask id="b" fill="#fff"><use xlink:href="#a"/></mask><path fill="#CFD7DF" fill-rule="nonzero" d="M16.101 15.841l1.742.63c1.394.504 2.317 1.788 2.317 3.223v1.432c0 .527-.443 5.754-.99 5.754H5.31c-.547 0-.99-5.227-.99-5.754v-1.432c0-1.435.924-2.72 2.317-3.224l1.742-.63a5.757 5.757 0 0 0 3.861 1.468 5.757 5.757 0 0 0 3.861-1.467zM12.049 6.24h.382c.953 0 1.863.393 2.508 1.084.646.692.968 1.617.89 2.554l-.16 1.891c-.148 1.758-1.639 3.111-3.429 3.111-1.79 0-3.281-1.353-3.428-3.11l-.16-1.891a3.329 3.329 0 0 1 .888-2.554 3.432 3.432 0 0 1 2.51-1.085z" mask="url(#b)"/></g></svg>
